svg/media/notification_off_line.svg

<svg xmlns="http://www.w3.org/2000/svg" width="24" height="24" viewBox="0 0 24 24"><g fill="none" fill-rule="evenodd"><rect width="24" height="24"/><path fill="#09244B" d="M5.02484,8.42884 L7.00187,10.4059 L7.00187,12.5279 C7.00187,12.9936 6.89344,13.4529 6.68515,13.8695 L5.61991,16 L12.596,16 L15.5121,18.9161 C14.8332,20.1578 13.5149,21 12,21 C10.1362,21 8.57006,19.7252 8.12602,18 L4.16367,18 C3.34595,18 2.81411,17.1395 3.17981,16.4081 L4.8963,12.9751 C4.96573,12.8362 5.00187,12.6831 5.00187,12.5279 L5.00187,9 C5.00187,8.8077 5.00963,8.61722 5.02484,8.42884 Z M12.0019,2 C15.8679,2 19.0019,5.13401 19.0019,9 L19.0019,12.5279 C19.0019,12.6831 19.038,12.8362 19.1074,12.9751 L20.8239,16.4081 C21.1896,17.1395 20.6578,18 19.8401,18 L19.4144,18 L20.4855,19.0711 C20.876,19.4616 20.876,20.0948 20.4855,20.4853 C20.0949,20.8758 19.4618,20.8758 19.0712,20.4853 L3.51489,4.92894 C3.12436,4.53841 3.12436,3.90525 3.51489,3.51473 C3.90541,3.1242 4.53858,3.1242 4.9291,3.51473 L6.32206,4.90769 C7.59333,3.14636 9.66373,2 12.0019,2 Z M13.7324,18 L10.2676,18 C10.6134,18.5978 11.2597,19 12,19 C12.7403,19 13.3866,18.5978 13.7324,18 Z M12.0019,4 C10.2146,4 8.64641,4.93771 7.76236,6.34798 L17.4144,16 L18.3838,16 L17.3186,13.8695 C17.1103,13.4529 17.0019,12.9936 17.0019,12.5279 L17.0019,9 C17.0019,6.23858 14.7633,4 12.0019,4 Z"/></g></svg>

<svg xmlns="http://www.w3.org/2000/svg" width="24" height="24"><g fill="none" fill-rule="evenodd"><path d="M0 0h24v24H0z"/><path fill="#09244B" d="m5.025 8.429 1.977 1.977v2.122a3 3 0 0 1-.317 1.342L5.62 16h6.976l2.916 2.916A4.002 4.002 0 0 1 8.126 18H4.164a1.1 1.1 0 0 1-.984-1.592l1.716-3.433a1 1 0 0 0 .106-.447V9c0-.192.008-.383.023-.571M12.002 2a7 7 0 0 1 7 7v3.528a1 1 0 0 0 .105.447l1.717 3.433A1.1 1.1 0 0 1 19.84 18h-.426l1.071 1.071a1 1 0 0 1-1.414 1.414L3.515 4.93a1 1 0 1 1 1.414-1.414l1.393 1.393A6.99 6.99 0 0 1 12.002 2m1.73 16h-3.464a2 2 0 0 0 3.464 0m-1.73-14a4.997 4.997 0 0 0-4.24 2.348L17.414 16h.97l-1.065-2.13a3 3 0 0 1-.317-1.342V9a5 5 0 0 0-5-5"/></g></svg>
